public/img/field-24.svg

<svg width="70" height="69" viewBox="0 0 70 69" fill="none" xmlns="http://www.w3.org/2000/svg">
<ellipse cx="56.5" cy="55" rx="13.5" ry="14" fill="#E30020"/>
<g clip-path="url(#clip0)">
<path d="M62.5619 32.039C60.334 27.706 55.8657 24.987 50.9937 24.9996C49.6166 25.0007 48.2486 25.2221 46.9415 25.6553L41.6158 15.0041H49.9941C50.5461 15.0041 50.9937 15.4516 50.9937 16.0036C50.9937 16.5556 50.5461 17.0032 49.9941 17.0032H45.9959C45.4439 17.0032 44.9963 17.4507 44.9963 18.0027C44.9963 18.5547 45.4439 19.0023 45.9959 19.0023H49.9941C51.6502 19.0023 52.9928 17.6598 52.9928 16.0036C52.9928 14.3475 51.6502 13.005 49.9941 13.005H39.9986C39.4465 13.002 38.9966 13.447 38.9935 13.999C38.9926 14.1559 39.0287 14.3109 39.0989 14.4513L40.3804 17.0032H22.6242L21.6246 15.0041H27.0042C27.5562 15.0041 28.0038 14.5565 28.0038 14.0045C28.0038 13.4525 27.5562 13.005 27.0042 13.005H17.0087C16.4567 13.005 16.0091 13.4525 16.0091 14.0045C16.0091 14.5565 16.4567 15.0041 17.0087 15.0041H19.3896L20.8889 18.0027L17.0626 25.6553C10.2463 23.4103 2.9007 27.116 0.655699 33.9324C-1.5893 40.7487 2.11642 48.0943 8.93276 50.3393C15.7491 52.5843 23.0947 48.8786 25.3397 42.0623C25.6673 41.0677 25.8733 40.0373 25.9537 38.9934H32.002C32.083 38.9929 32.1635 38.9825 32.2419 38.9624L32.2629 38.9574C32.2859 38.9514 32.3059 38.9384 32.3288 38.9314C32.3693 38.9194 32.4091 38.9052 32.4478 38.8884C32.4538 38.8884 32.4568 38.8804 32.4618 38.8774C32.4668 38.8744 32.4898 38.8634 32.5028 38.8554C32.5317 38.8366 32.5599 38.8162 32.5867 38.7945C32.6298 38.7642 32.6706 38.7308 32.7087 38.6945L32.7477 38.6545C32.7626 38.6375 32.7716 38.6186 32.7856 38.6006C32.7996 38.5826 32.8326 38.5496 32.8516 38.5196C32.8596 38.5056 32.8636 38.4896 32.8706 38.4756C32.8776 38.4616 32.8886 38.4536 32.8956 38.4406L41.9975 20.2377L45.0961 26.435C38.7256 29.7105 36.2166 37.5302 39.4921 43.9006C42.7677 50.2711 50.5873 52.7801 56.9577 49.5046C63.3283 46.229 65.8373 38.4094 62.5619 32.039ZM13.0104 48.9889C6.93802 48.9974 2.00847 44.0816 1.99998 38.0092C1.99148 31.9368 6.90729 27.0072 12.9797 26.9987C14.0562 26.9972 15.1271 27.1538 16.1582 27.4635L11.1163 37.547C10.8695 38.0408 11.0698 38.6412 11.5636 38.8879C11.7025 38.9573 11.8556 38.9934 12.0109 38.9934H23.9546C23.4334 44.6506 18.6917 48.9813 13.0104 48.9889ZM13.6282 36.9943L18.0172 28.2172C21.3677 29.9343 23.6076 33.2454 23.9546 36.9943H13.6282ZM25.9537 36.9943C25.6025 32.4873 22.934 28.4867 18.9078 26.431L22.0064 20.2337L30.3847 36.9943H25.9537ZM32.002 35.7588L23.6237 19.0023H40.3803L32.002 35.7588ZM54.172 48.5241C53.1409 48.8339 52.07 48.9904 50.9935 48.9889C44.9255 48.9939 40.0024 44.0789 39.9974 38.0108C39.9941 33.8799 42.308 30.0962 45.9868 28.2172L51.0985 38.4406C51.3452 38.9347 51.9459 39.1352 52.4399 38.8884C52.9339 38.6417 53.1344 38.0411 52.8877 37.547L47.8459 27.4635C53.6617 25.7167 59.7924 29.0151 61.5392 34.8309C63.2862 40.6465 59.9878 46.7773 54.172 48.5241Z" fill="#5A2E91"/>
<path d="M13.0108 39.9929H12.0113C11.4593 39.9929 11.0117 40.4405 11.0117 40.9925C11.0117 41.5445 11.4593 41.992 12.0113 41.992H13.0108C13.5628 41.992 14.0104 41.5445 14.0104 40.9925C14.0104 40.4405 13.5628 39.9929 13.0108 39.9929Z" fill="#5A2E91"/>
<path d="M17.0108 39.9929H16.0113C15.4593 39.9929 15.0117 40.4405 15.0117 40.9925C15.0117 41.5445 15.4593 41.992 16.0113 41.992H17.0108C17.5628 41.992 18.0104 41.5445 18.0104 40.9925C18.0104 40.4405 17.5628 39.9929 17.0108 39.9929Z" fill="#5A2E91"/>
<path d="M21.0069 39.9929H20.0074C19.4554 39.9929 19.0078 40.4405 19.0078 40.9925C19.0078 41.5445 19.4554 41.992 20.0074 41.992H21.0069C21.5589 41.992 22.0065 41.5445 22.0065 40.9925C22.0065 40.4405 21.5589 39.9929 21.0069 39.9929Z" fill="#5A2E91"/>
</g>
<defs>
<clipPath id="clip0">
<rect width="64" height="64" fill="white"/>
</clipPath>
</defs>
</svg>

<svg width="70" height="69" fill="none" xmlns="http://www.w3.org/2000/svg"><ellipse cx="56.5" cy="55" rx="13.5" ry="14" fill="#E30020"/><g clip-path="url(#clip0)" fill="#5A2E91"><path d="M62.562 32.039a12.97 12.97 0 00-11.568-7.04 12.914 12.914 0 00-4.053.656l-5.325-10.65h8.378a1 1 0 110 1.998h-3.998a1 1 0 100 2h3.998a2.999 2.999 0 100-5.998H40a1 1 0 00-.9 1.446l1.281 2.552H22.624l-1-1.999h5.38a1 1 0 000-1.999H17.01a1 1 0 100 2h2.38l1.5 2.998-3.826 7.652C10.246 23.41 2.9 27.116.656 33.932-1.59 40.75 2.116 48.094 8.933 50.34c6.816 2.245 14.162-1.46 16.407-8.277a13 13 0 00.614-3.069h6.048a.99.99 0 00.24-.03l.02-.006c.024-.006.044-.019.067-.026.04-.012.08-.026.119-.043.006 0 .009-.008.014-.01l.04-.023a.864.864 0 00.085-.06c.043-.03.084-.064.122-.1l.039-.04c.015-.017.024-.036.038-.054.014-.018.047-.051.066-.081.008-.014.012-.03.019-.044.007-.014.018-.022.025-.035l9.102-18.203 3.098 6.197c-6.37 3.276-8.88 11.095-5.604 17.466 3.276 6.37 11.095 8.88 17.466 5.604 6.37-3.276 8.88-11.096 5.604-17.466zM13.01 48.989C6.938 48.997 2.008 44.082 2 38.009 1.991 31.937 6.907 27.007 12.98 27a10.996 10.996 0 013.178.465l-5.042 10.083a1 1 0 00.895 1.446h11.944A11.005 11.005 0 0113.01 48.99zm.618-11.995l4.39-8.777a11.002 11.002 0 015.937 8.777H13.628zm12.326 0a12.994 12.994 0 00-7.046-10.563l3.098-6.197 8.379 16.76h-4.431zm6.048-1.235l-8.378-16.757H40.38L32.002 35.76zm22.17 12.765c-1.031.31-2.102.466-3.178.465-6.069.005-10.992-4.91-10.997-10.978a10.987 10.987 0 015.99-9.794l5.111 10.224a1 1 0 101.79-.894l-5.042-10.083c5.816-1.747 11.946 1.551 13.693 7.367 1.747 5.816-1.551 11.946-7.367 13.693z"/><path d="M13.01 39.993h-.999a1 1 0 000 1.999h1a1 1 0 100-2zm4 0h-.999a1 1 0 000 1.999h1a1 1 0 100-2zm3.997 0h-1a1 1 0 000 1.999h1a1 1 0 100-2z"/></g><defs><clipPath id="clip0"><path fill="#fff" d="M0 0h64v64H0z"/></clipPath></defs></svg>
